packages/kaspersky-hexa-ui-icons/src/iconsSVGs/16/FavoriteSolid.svg

<svg width="16" height="16" viewBox="0 0 16 16" fill="none" xmlns="http://www.w3.org/2000/svg">
<path fill-rule="evenodd" clip-rule="evenodd" d="M7.21529 1.90248C7.50564 1.20439 8.49458 1.20438 8.78493 1.90248L10.2993 5.54352L14.2301 5.85865C14.9838 5.91907 15.2894 6.8596 14.7152 7.35147L11.7203 9.91688L12.6353 13.7527C12.8107 14.4881 12.0107 15.0694 11.3654 14.6753L8.00011 12.6198L4.6348 14.6753C3.98956 15.0694 3.1895 14.4881 3.36493 13.7527L4.2799 9.91688L1.28505 7.35147C0.710842 6.8596 1.01643 5.91907 1.77009 5.85865L5.7009 5.54352L7.21529 1.90248Z" fill="black"/>
</svg>

<svg xmlns="http://www.w3.org/2000/svg" width="16" height="16" fill="none" viewBox="0 0 16 16"><path fill="#000" fill-rule="evenodd" d="M7.2153 1.9025c.2903-.6981 1.2793-.6981 1.5696 0l1.5144 3.641 3.9308.3152c.7537.0604 1.0593 1.0009.4851 1.4928l-2.9949 2.5654.915 3.8358c.1754.7354-.6246 1.3167-1.2699.9226l-3.3653-2.0555-3.3653 2.0555c-.6452.3941-1.4453-.1872-1.2699-.9226l.915-3.8358-2.9948-2.5654c-.5743-.4919-.2687-1.4324.485-1.4928l3.9308-.3152z"/></svg>
